!!!!SEGMENT: Ser1002e-Missa_Novem_lectionum-Agnus.krn
!!!id: Ser1002e
!!!OTL: Agnus
!!!AGN: Mass; Agnus
!!!voices: 2–5
!!!COM: Claudin de Sermisy
!!!OPR: Missa Novem lectionum
**kern	**kern	**kern	**kern	**kern
*part5	*part4	*part3	*part2	*part1
*staff5	*staff4	*staff3	*staff2	*staff1
*I"Bassus	*I"Tenor II	*I"Tenor I	*I"Altus	*I"Superius
*I'B	*I'T. II	*I'T. I	*I'A	*I'S
*clefF4	*clefGv2	*clefGv2	*clefGv2	*clefG2
*k[b-]	*k[b-]	*k[b-]	*k[b-]	*k[b-]
*M2/1	*M2/1	*M2/1	*M2/1	*M2/1
*met(C|)	*met(C|)	*met(C|)	*met(C|)	*met(C|)
!!section: Agnus Dei I
!!!OMD: Agnus Dei I
=1	=1	=1	=1	=1
!	!	!	!	!LO:TX:a:t=Cantus firmus&colon; Missa "Dominator Deus" \n
0r	0r	0r	0r	0g
=2	=2	=2	=2	=2
0r	0r	0G	0r	1.b-y
.	.	.	.	2a
=3	=3	=3	=3	=3
0r	0r	0B-y	1r	1g
.	.	.	[1d	1f
=4	=4	=4	=4	=4
1r	0r	1G	1d]	1g
[1D	.	1F	[1f	1a
=5	=5	=5	=5	=5
1D]	0r	0A	2f]	1a
.	.	.	2e	.
[1F	.	.	1d	[1a
=6	=6	=6	=6	=6
2F]	0r	0A	1c	2a]
2E	.	.	.	2g
1D	.	.	2d	2f
.	.	.	[2f	[2a
=7	=7	=7	=7	=7
1C	0r	1r	4f]	4a]
.	.	.	4e	4g
.	.	.	2.e	1g
1D	.	1A	.	.
.	.	.	4d	.
.	.	.	[2d	2f#i
=8	=8	=8	=8	=8
1E	0r	1G	2d]	1g
.	.	.	2c	.
1F	.	1c	4A	1a
.	.	.	4B-y	.
.	.	.	4c	.
.	.	.	4d	.
=9	=9	=9	=9	=9
1C	0r	0c	1.e	1.g
1r	.	.	.	.
.	.	.	4d	[2cc
.	.	.	4c	.
=10	=10	=10	=10	=10
1AA	0r	1c	2e	2cc]
.	.	.	2f	4b-y
.	.	.	.	4a
1GG	.	1d	1g	1b-y
=11	=11	=11	=11	=11
1C	0r	1.c	2r	[0cc
.	.	.	2.e	.
[1C	.	.	.	.
.	.	.	4d	.
.	.	2B-y	[2g	.
=12	=12	=12	=12	=12
1C]	0r	1A	4g]	0cc]
.	.	.	4f	.
.	.	.	1f	.
1C	.	1G	.	.
.	.	.	2e	.
=13	=13	=13	=13	=13
1D	0r	2r	1f	1r
.	.	1B-y	.	.
1C	.	.	1r	1cc
.	.	[2A	.	.
=14	=14	=14	=14	=14
1BB-y	0r	2A]	1r	1dd
.	.	2G	.	.
1AA	.	1A	1c	[1cc
=15	=15	=15	=15	=15
1GG	0r	0r	1d	2cc]
.	.	.	.	2b-y
2.AA	.	.	2.c	2.a
4BB-y	.	.	4B-y	8gL
.	.	.	.	8fJ
=16	=16	=16	=16	=16
2C	0r	0r	4G	2e
.	.	.	4A	.
2D	.	.	1B-y	2d
2C	.	.	.	2e
2AA	.	.	[2A	2c
=17	=17	=17	=17	=17
1BB-y	0r	1r	2A]	1d
.	.	.	2G	.
1AA	.	2r	[1A	[1c
.	.	[2c	.	.
=18	=18	=18	=18	=18
1F	0r	2c]	1A]	1c]
.	.	2A	.	.
2D	.	1B-y	1r	1r
[2E	.	.	.	.
=19	=19	=19	=19	=19
2E]	0r	2G	0r	0r
2C	.	2.A	.	.
2.D	.	.	.	.
.	.	4G	.	.
.	.	4F	.	.
4C	.	4E	.	.
=20	=20	=20	=20	=20
2BB-y	0r	2D	0r	2r
2C	.	1G	.	1cc
1AA	.	.	.	.
.	.	2F#i	.	2a
=21	=21	=21	=21	=21
1GG	0r	1G	1r	1b-y
1r	.	1r	1c	2g
.	.	.	.	[2a
=22	=22	=22	=22	=22
1r	0r	0r	2A	4a]
.	.	.	.	4g
.	.	.	1B-y	4f
.	.	.	.	4e
2r	.	.	.	2d
[2C	.	.	2G	[2g
=23	=23	=23	=23	=23
2C]	0r	0r	1c	2g]
2AA	.	.	.	2a
1BB-y	.	.	[1d	2f
.	.	.	.	[2b-y
=24	=24	=24	=24	=24
1GG	0r	1r	1d]	4b-]
.	.	.	.	4a
.	.	.	.	4g
.	.	.	.	4f
2.AA	.	2r	2.c	2e
.	.	[2c	.	2a
4BB-y	.	.	4d	.
=25	=25	=25	=25	=25
2C	0r	2c]	2e	2g
2D	.	2A	1d	2f
1GG	.	1B-y	.	1g
.	.	.	2d	.
=26	=26	=26	=26	=26
1C	0r	1G	2.e	2r
.	.	.	.	2g
.	.	.	4d	.
[1AA	.	2.A	2e	2.cc
.	.	.	2f	.
.	.	4B-y	.	4b-y
=27	=27	=27	=27	=27
2AA]	0r	2c	2e	2a
2BB-y	.	2B-y	2d	4g
.	.	.	.	4f
2C	.	2G	2c	4e
.	.	.	.	4d
2GG	.	2B-y	[2d	2g
=28	=28	=28	=28	=28
2D	0r	2A	2d]	2f
2E	.	2G	2c	1g
1D	.	1A	1d	.
.	.	.	.	2f#i
=29	=29	=29	=29	=29
0GG	0r	0G	0d	0g
=30||	=30||	=30||	=30||	=30||
*M2/1	*M2/1	*M2/1	*M2/1	*M2/1
*met(C|)	*met(C|)	*met(C|)	*met(C|)	*met(C|)
!!section: Agnus Dei II
!!!OMD: Agnus Dei II
0r	0r	0r	0r	1d
.	.	.	.	1a
=31	=31	=31	=31	=31
0r	0r	0r	1r	0b-y
.	.	.	1G	.
=32	=32	=32	=32	=32
0r	0r	0r	1d	1a
.	.	.	[1e	2.g
.	.	.	.	4a
=33	=33	=33	=33	=33
0r	0r	0r	1e]	2b-y
.	.	.	.	1cc
.	.	.	1d	.
.	.	.	.	2b-y
=34	=34	=34	=34	=34
0r	0r	0r	2c	4a
.	.	.	.	4g
.	.	.	1d	4f
.	.	.	.	4e
.	.	.	.	2f
.	.	.	4c	[2g
.	.	.	4B-y	.
=35	=35	=35	=35	=35
0r	0r	0r	4A	2g]
.	.	.	4G	.
.	.	.	2A	2f#i
.	.	.	[1G	1g
=36	=36	=36	=36	=36
0r	0r	0r	1G]	1.b-y
.	.	.	[1B-y	.
.	.	.	.	2a
=37	=37	=37	=37	=37
0r	0r	0r	2B-]	2g
.	.	.	2A	1f
.	.	.	1G	.
.	.	.	.	2e
=38	=38	=38	=38	=38
0r	0r	0r	1F	2f
.	.	.	.	1a
.	.	.	1A	.
.	.	.	.	[2cc
=39	=39	=39	=39	=39
0r	0r	0r	1c	4cc]
.	.	.	.	4b-y
.	.	.	.	4a
.	.	.	.	4g
.	.	.	1d	2f
.	.	.	.	[2b-y
=40	=40	=40	=40	=40
0r	0r	0r	1G	4b-]
.	.	.	.	4cc
.	.	.	.	2.dd
.	.	.	2.F	.
.	.	.	.	4cc
.	.	.	.	[2cc
.	.	.	4G	.
=41	=41	=41	=41	=41
0r	0r	0r	4A	4cc]
.	.	.	4B-y	4b-y
.	.	.	2.c	4a
.	.	.	.	4g
.	.	.	.	2a
.	.	.	4B-y	.
.	.	.	4A	[2g
.	.	.	4G	.
=42	=42	=42	=42	=42
0r	0r	0r	1A	2g]
.	.	.	.	2f#i
.	.	.	[1G	1g
=43	=43	=43	=43	=43
0r	0r	0r	1G]	2r
.	.	.	.	1g
.	.	.	2r	.
.	.	.	[2d	2f
=44	=44	=44	=44	=44
0r	0r	0r	2d]	2.g
.	.	.	2c	.
.	.	.	.	4a
.	.	.	2.d	1b-y
.	.	.	4e	.
=45	=45	=45	=45	=45
0r	0r	0r	2f	2a
.	.	.	2d	1dd
.	.	.	1e	.
.	.	.	.	2cc#i
=46	=46	=46	=46	=46
0r	0r	0r	1d	0dd
.	.	.	2r	.
.	.	.	2G	.
=47	=47	=47	=47	=47
0r	0r	0r	2.B-y	2r
.	.	.	.	2d
.	.	.	4c	.
.	.	.	2d	2.f
.	.	.	2B-y	.
.	.	.	.	4g
=48	=48	=48	=48	=48
0r	0r	0r	2c	2a
.	.	.	2d	2f
.	.	.	2e	2g
.	.	.	[2d	2a
=49	=49	=49	=49	=49
0r	0r	0r	2d]	2b-y
.	.	.	2c	1a
.	.	.	2d	.
.	.	.	2e	2g
=50	=50	=50	=50	=50
0r	0r	0r	2c	2a
.	.	.	2d	2b-y
.	.	.	4c	4a
.	.	.	4B-y	4g
.	.	.	4A	[2g
.	.	.	4G	.
=51	=51	=51	=51	=51
0r	0r	0r	1A	2g]
.	.	.	.	2f#i
.	.	.	1G	[1g
=52	=52	=52	=52	=52
0r	0r	0r	2r	1g]
.	.	.	2G	.
.	.	.	2.B-y	2r
.	.	.	.	2d
.	.	.	4c	.
=53	=53	=53	=53	=53
0r	0r	0r	2d	2.f
.	.	.	2B-y	.
.	.	.	.	4g
.	.	.	2c	2a
.	.	.	2d	2f
=54	=54	=54	=54	=54
0r	0r	0r	2e	2g
.	.	.	1d	2a
.	.	.	.	2b-y
.	.	.	2c	[2a
=55	=55	=55	=55	=55
0r	0r	0r	2d	2a]
.	.	.	2e	2g
.	.	.	2c	2a
.	.	.	2d	2b-y
=56	=56	=56	=56	=56
0r	0r	0r	4c	4a
.	.	.	4B-y	4g
.	.	.	4A	1g
.	.	.	4G	.
.	.	.	1A	.
.	.	.	.	2f#i
=57	=57	=57	=57	=57
0r	0r	0r	0G	0g
=58||	=58||	=58||	=58||	=58||
*M2/1	*M2/1	*M2/1	*M2/1	*M2/1
*met(C|)	*met(C|)	*met(C|)	*met(C|)	*met(C|)
!!section: Agnus Dei III
!!!OMD: Agnus Dei III
0r	1r	0r	0d	0r
.	2.D	.	.	.
.	4E	.	.	.
=59	=59	=59	=59	=59
1r	2F	0r	0d	0r
.	2.G	.	.	.
2.GG	.	.	.	.
.	4A	.	.	.
.	4B-y	.	.	.
4AA	4c	.	.	.
=60	=60	=60	=60	=60
2BB-y	2d	0G	0r	0r
2.C	2c	.	.	.
.	1e	.	.	.
4D	.	.	.	.
4E	.	.	.	.
4F	.	.	.	.
=61	=61	=61	=61	=61
1G	1d	0B-y	0r	0r
1GG	2r	.	.	.
.	[2d	.	.	.
=62	=62	=62	=62	=62
2r	4d]	0G	0d	0r
.	4c	.	.	.
2.GG	4B-y	.	.	.
.	4A	.	.	.
.	1B-y	.	.	.
4AA	.	.	.	.
4BB-y	.	.	.	.
4C	.	.	.	.
=63	=63	=63	=63	=63
2D	2A	0F	1f	0r
2.BB-y	2.B-y	.	.	.
.	.	.	2d	.
4C	4A	.	.	.
4D	[2F	.	2r	.
4E	.	.	.	.
=64	=64	=64	=64	=64
2F	4F]	0A	1c	0r
.	4G	.	.	.
[2FF	4A	.	.	.
.	4B-y	.	.	.
4FF]	1c	.	1f	.
4GG	.	.	.	.
4AA	.	.	.	.
4BB-y	.	.	.	.
=65	=65	=65	=65	=65
2C	2r	0A	2e	0r
2D	1F	.	1d	.
[1AA	.	.	.	.
.	4E	.	4c	.
.	4D	.	4B-y	.
=66	=66	=66	=66	=66
1AA]	2E	1r	1c	0r
.	1F	.	.	.
[1BB-y	.	2.D	[1d	.
.	[2B-y	.	.	.
.	.	4E	.	.
=67	=67	=67	=67	=67
2BB-]	4B-]	2F	1d]	1r
.	4A	.	.	.
2GG	4B-y	2.G	.	.
.	4c	.	.	.
1GG	2d	.	1r	1g
.	.	4A	.	.
.	[2G	4B-y	.	.
.	.	4c	.	.
=68	=68	=68	=68	=68
1GG	4G]	1d	2.G	1.b-y
.	4A	.	.	.
.	4B-y	.	.	.
.	4c	.	4A	.
1r	2d	1r	4B-y	.
.	.	.	4c	.
.	2D	.	[2d	2a
=69	=69	=69	=69	=69
0r	1E	1G	2d]	1g
.	.	.	2c	.
.	1D	2.A	1d	1f
.	.	4B-y	.	.
=70	=70	=70	=70	=70
2r	1r	2c	2e	0a
2.D	.	2d	2.f	.
.	2.D	[1A	.	.
4E	.	.	4e	.
4F	.	.	[2d	.
4G	4E	.	.	.
=71	=71	=71	=71	=71
2A	4F	1A]	2d]	1a
.	4G	.	.	.
2AA	2A	.	2c	.
2.BB-y	2.D	1F	[1d	1r
4C	4E	.	.	.
=72	=72	=72	=72	=72
2D	2F	1r	0d]	0r
2GG	1G	.	.	.
2D	.	1A	.	.
2D	2F#i	.	.	.
=73	=73	=73	=73	=73
2.E	0G	2.G	0r	0r
4F	.	4A	.	.
2G	.	2B-y	.	.
2C	.	[2c	.	.
=74	=74	=74	=74	=74
1G	2r	2c]	1d	0r
.	2G	2BnXi	.	.
1r	2.A	1c	2.c	.
.	4B-y	.	4d	.
=75	=75	=75	=75	=75
1r	2c	1C	4e	1r
.	.	.	4f	.
.	2G	.	1g	.
2r	1d	1r	.	1a
2D	.	.	2f#i	.
=76	=76	=76	=76	=76
2.E	0G	0r	2.g	2.g
4F	.	.	8fL	4a
.	.	.	8eJ	.
2G	.	.	4d	2b-y
.	.	.	4c	.
2C	.	.	2e	[2cc
=77	=77	=77	=77	=77
1G	0r	2r	1d	2cc]
.	.	2G	.	2bnXi
1r	.	2.A	2.c	[1cc
.	.	4B-y	4d	.
=78	=78	=78	=78	=78
0r	0r	2c	2e	1cc]
.	.	2F	1f	.
.	.	1c	.	1cc
.	.	.	2e	.
=79	=79	=79	=79	=79
0r	2r	1B-y	2f	1dd
.	2G	.	2g	.
.	2.A	1r	2.e	[1cc
.	4B-y	.	4d	.
=80	=80	=80	=80	=80
0r	2c	0r	2e	2cc]
.	2F	.	1f	4b-y
.	.	.	.	4a
.	1c	.	.	2g
.	.	.	2e	[2a
=81	=81	=81	=81	=81
0r	1F	1c	0f	4a]
.	.	.	.	4b-y
.	.	.	.	2.cc
.	1r	1d	.	.
.	.	.	.	4b-y
.	.	.	.	[2b-y
=82	=82	=82	=82	=82
1G	0r	2B-y	2r	4b-]
.	.	.	.	4a
.	.	2A	2f	1a
1G	.	1B-y	2d	.
.	.	.	2e	2g
=83	=83	=83	=83	=83
1.F	1c	0A	[0f	[0a
.	1d	.	.	.
2D	.	.	.	.
=84	=84	=84	=84	=84
2.F	2c	0r	1f]	1a]
.	2A	.	.	.
4E	.	.	.	.
2D	2B-y	.	1r	1r
2C	[2c	.	.	.
=85	=85	=85	=85	=85
2AA	4c]	1r	1c	0r
.	4B-y	.	.	.
2C	1A	.	.	.
1BB-y	.	2r	1d	.
.	2G	2D	.	.
=86	=86	=86	=86	=86
1AA	2A	2E	2c	1cc
.	2r	1F	2A	.
1D	1r	.	2B-y	1dd
.	.	4D	[2A	.
.	.	4E	.	.
=87	=87	=87	=87	=87
0r	0r	4F	4A]	1cc
.	.	4G	4B-y	.
.	.	4A	4c	.
.	.	4B-y	4d	.
.	.	2c	2e	2.cc
.	.	2F	[2f	.
.	.	.	.	8b-yL
.	.	.	.	8aJ
=88	=88	=88	=88	=88
0r	1r	1c	2f]	2g
.	.	.	2e	2.a
.	2r	1F	1f	.
.	.	.	.	4g
.	[2c	.	.	4a
.	.	.	.	4f
=89	=89	=89	=89	=89
0r	2c]	0r	2r	2g
.	2A	.	1f	1a
.	1B-y	.	.	.
.	.	.	2d	2g
=90	=90	=90	=90	=90
1r	0A	2r	1enXi	1a
.	.	1c	.	.
1F	.	.	1c	1a
.	.	2A	.	.
=91	=91	=91	=91	=91
2D	1r	1B-y	0r	2f
1E	.	.	.	2.g
.	2r	1G	.	.
.	.	.	.	4f
2C	[2c	.	.	4e
.	.	.	.	4d
=92	=92	=92	=92	=92
2.F	2c]	1G	0r	1c
.	2A	.	.	.
4E	.	.	.	.
2D	1B-y	2F	.	1r
[2E	.	[2G	.	.
=93	=93	=93	=93	=93
4E]	2G	4G]	0r	1r
4D	.	4F	.	.
4C	2.A	4E	.	.
4BB-y	.	4D	.	.
4C	.	4E	.	2r
4BB-y	4G	4D	.	.
4AA	4F	4C	.	[2cc
4GG	4E	4BB-y	.	.
=94	=94	=94	=94	=94
1AA	1F	1C	2r	2cc]
.	.	.	2c	2a
1GG	[1G	1D	2B-y	[1b-y
.	.	.	2G	.
=95	=95	=95	=95	=95
2r	0G_	1r	1d	1b-]
2G	.	.	.	.
2E	.	2r	1e	1g
2C	.	2c	.	.
=96	=96	=96	=96	=96
2G	1G]	2B-y	2d	1b-y
2G	.	2G	1g	.
1D	1r	1d	.	1a
.	.	.	2f#i	.
=97	=97	=97	=97	=97
2r	1G	2.e	1g	1g
1C	.	.	.	.
.	.	4d	.	.
.	2E	1c	1r	1r
2AA	[2F	.	.	.
=98	=98	=98	=98	=98
1BB-y	2F]	0B-y	2r	1r
.	2D	.	1d	.
1GG	1r	.	.	2r
.	.	.	2B-y	[2g
=99	=99	=99	=99	=99
1C	0r	2r	1c	2g]
.	.	1G	.	2e
1D	.	.	1A	1f
.	.	2F	.	.
=100	=100	=100	=100	=100
1GG	2r	1G	2.B-y	2.d
.	2d	.	.	.
.	.	.	4c	4e
1r	2d	2.D	4d	4f
.	.	.	4e	4g
.	2d	.	[2f	[2a
.	.	4E	.	.
=101	=101	=101	=101	=101
0r	2c	2F	4f]	2a]
.	.	.	4e	.
.	2B-y	2G	4d	1g
.	.	.	4c	.
.	1A	1D	1d	.
.	.	.	.	2f#i
=102	=102	=102	=102	=102
2r	1G	0G	2.B-y	2g
1G	.	.	.	1b-y
.	.	.	4c	.
.	2r	.	2d	.
2E	[2c	.	2e	2g
=103	=103	=103	=103	=103
1F	2c]	0r	1c	2a
.	2A	.	.	2f
2D	1B-y	.	2r	1r
[2E	.	.	[2g	.
=104	=104	=104	=104	=104
2E]	2G	0r	2g]	2r
2C	1A	.	2e	1cc
1F	.	.	1f	.
.	2F	.	.	2a
=105	=105	=105	=105	=105
1r	1G	2r	1d	1b-y
.	.	1G	.	.
1C	2C	.	1r	1g
.	[2c	2E	.	.
=106	=106	=106	=106	=106
2AA	2c]	1F	2r	1r
1BB-y	2.B-y	.	1d	.
.	.	1D	.	2r
.	4c	.	.	.
2GG	2d	.	2B-y	[2g
=107	=107	=107	=107	=107
1C	2r	0r	1c	2g]
.	1G	.	.	2e
1D	.	.	1A	1f
.	2F	.	.	.
=108	=108	=108	=108	=108
2GG	1G	2r	2.B-y	1d
1G	.	2d	.	.
.	.	.	4c	.
.	1D	2.d	4d	2r
.	.	.	4e	.
2F	.	.	2f	2a
.	.	4c	.	.
=109	=109	=109	=109	=109
1G	2r	2B-y	2.B-y	2.b-y
.	2d	2B-y	.	.
.	.	.	4c	4a
2.D	2d	1A	4d	2f
.	.	.	4e	.
.	2d	.	[2f	[2a
4E	.	.	.	.
=110	=110	=110	=110	=110
2F	2c	1r	4f]	2a]
.	.	.	4e	.
2G	2B-y	.	4d	1g
.	.	.	4c	.
1D	1A	2r	1d	.
.	.	[2F	.	2f#i
=111	=111	=111	=111	=111
1GG	[0Gl	2F]	1B-y	[0gl
.	.	2D	.	.
[1C	.	1E	2.c	.
.	.	.	4d	.
=112	=112	=112	=112	=112
2C]	0G_	2C	2e	0g_
2BB-y	.	2D	2d	.
1C	.	1E	1c	.
=113	=113	=113	=113	=113
0GGl	0G]	0Dl	0B-yl	0g]
==	==	==	==	==
*-	*-	*-	*-	*-
!!!system-decoration: [*]
!!!RDF**kern: i = editorial accidental
!!!RDF**kern: l = terminal long
!!!ENC: Max Blistain
!!!END: 2025/10/28
!!!EED: Benjamin Ory
!!!EEV: 2025/11/12
!!!YEC: Copyright 2025 Benjamin Ory, All Rights Reserved
!!!ONB: Translated from MusicXML on 2025/11/12